fraction-one-half.svg

<svg fill="currentColor" viewBox="0 0 24 24"><path d="m5.79 21.61-1.58-1.22 14-18 1.58 1.22zM4 2v2h2v8h2V2zm11 10v2h4v2h-2c-1.1 0-2 .9-2 2v4h6v-2h-4v-2h2c1.11 0 2-.89 2-2v-2a2 2 0 0 0-2-2z"/></svg>

<svg  viewBox="0 0 24 24" fill="currentColor"><path  d="M5.79 21.61L4.21 20.39L18.21 2.39L19.79 3.61L5.79 21.61M4 2V4H6V12H8V2H4M15 12V14H19V16H17C15.9 16 15 16.9 15 18V22H21V20H17V18H19C20.11 18 21 17.11 21 16V14C21 12.9 20.11 12 19 12H15Z"/></svg>
